ui/StatusQ/src/assets/img/icons/settings.svg

<svg fill="none" height="24" viewBox="0 0 24 24" width="24" xmlns="http://www.w3.org/2000/svg"><g clip-rule="evenodd" fill="#000" fill-rule="evenodd"><path d="m15 12c0 1.6569-1.3431 3-3 3s-3-1.3431-3-3 1.3431-3 3-3 3 1.3431 3 3zm-1.5 0c0 .8284-.6716 1.5-1.5 1.5s-1.5-.6716-1.5-1.5.6716-1.5 1.5-1.5 1.5.6716 1.5 1.5z"/><path d="m12.2457 21.75h-.4914c-.7813 0-1.468-.518-1.6827-1.2692l-.44147-1.5453c-.08601-.301-.42435-.4499-.70437-.3099l-1.44568.7229c-.67373.3369-1.48743.2048-2.02006-.3278l-.4807-.4807c-.53263-.5326-.66467-1.3463-.32781-2.0201l.72285-1.4457c.14-.28-.00883-.6183-.30986-.7043l-1.54526-.4415c-.75128-.2147-1.26924-.9014-1.26924-1.6827v-.4914c0-.7813.51796-1.468 1.26924-1.6827l1.54526-.44147c.30103-.08601.44986-.42435.30986-.70437l-.72285-1.44568c-.33686-.67373-.20482-1.48743.32781-2.02006l.4807-.4807c.53263-.53263 1.34633-.66467 2.02006-.32781l1.44568.72285c.28002.14.61836-.00883.70437-.30986l.44147-1.54526c.2147-.75128.9014-1.26924 1.6827-1.26924h.4914c.7813 0 1.468.51796 1.6827 1.26924l.4415 1.54526c.086.30103.4243.44986.7043.30986l1.4457-.72285c.6738-.33686 1.4875-.20482 2.0201.32781l.4807.4807c.5326.53263.6647 1.34633.3278 2.02006l-.7229 1.44568c-.14.28002.0089.61836.3099.70437l1.5453.44147c.7512.2147 1.2692.9014 1.2692 1.6827v.4914c0 .7813-.518 1.468-1.2692 1.6827l-1.5453.4415c-.301.086-.4499.4243-.3099.7043l.7229 1.4457c.3369.6738.2048 1.4875-.3278 2.0201l-.4807.4807c-.5326.5326-1.3463.6647-2.0201.3278l-1.4457-.7229c-.28-.14-.6183.0089-.7043.3099l-.4415 1.5453c-.2147.7512-.9014 1.2692-1.6827 1.2692zm-.4914-1.5h.4914c.1116 0 .2097-.074.2404-.1813l.6881-2.4086c.154-.5387.6463-.9101 1.2066-.9101.1948 0 .387.0454.5612.1325l2.2487 1.1243c.0963.0482.2125.0293.2886-.0468l.4807-.4807c.0761-.0761.095-.1923.0468-.2886l-1.1243-2.2487c-.0871-.1742-.1325-.3664-.1325-.5612 0-.5603.3714-1.0526.9101-1.2066l2.4086-.6881c.1073-.0307.1813-.1288.1813-.2404v-.4914c0-.1116-.074-.2097-.1813-.2404l-2.4086-.6881c-.5387-.154-.9101-.6463-.9101-1.20662 0-.19481.0454-.38695.1325-.56119l1.1243-2.24873c.0482-.09625.0293-.21249-.0468-.28858l-.4807-.4807c-.0761-.07609-.1923-.09495-.2886-.04683l-2.2487 1.12437c-.1742.08712-.3664.13248-.5612.13248-.5603 0-1.0526-.37141-1.2066-.91012l-.6881-2.40856c-.0307-.10733-.1288-.18132-.2404-.18132h-.4914c-.1116 0-.2097.07399-.2404.18132l-.6881 2.40856c-.154.53871-.6463.91012-1.20662.91012-.19481 0-.38695-.04536-.56119-.13248l-2.24873-1.12437c-.09625-.04812-.21249-.02926-.28858.04683l-.4807.4807c-.07609.07609-.09495.19233-.04683.28858l1.12437 2.24873c.08712.17424.13248.36638.13248.56119 0 .56032-.37141 1.05262-.91012 1.20662l-2.40856.6881c-.10733.0307-.18132.1288-.18132.2404v.4914c0 .1116.07399.2097.18132.2404l2.40856.6881c.53871.154.91012.6463.91012 1.2066 0 .1948-.04536.387-.13248.5612l-1.12437 2.2487c-.04812.0963-.02926.2125.04683.2886l.4807.4807c.07609.0761.19233.095.28858.0468l2.24873-1.1243c.17424-.0871.36638-.1325.56119-.1325.56032 0 1.05262.3714 1.20662.9101l.6881 2.4086c.0307.1073.1288.1813.2404.1813z"/></g></svg>

<svg width="24" height="24" viewBox="0 0 24 24" fill="none" xmlns="http://www.w3.org/2000/svg">
<path fill-rule="evenodd" clip-rule="evenodd" d="M15 12C15 13.6569 13.6569 15 12 15C10.3431 15 9 13.6569 9 12C9 10.3431 10.3431 9 12 9C13.6569 9 15 10.3431 15 12ZM13.5 12C13.5 12.8284 12.8284 13.5 12 13.5C11.1716 13.5 10.5 12.8284 10.5 12C10.5 11.1716 11.1716 10.5 12 10.5C12.8284 10.5 13.5 11.1716 13.5 12Z" fill="black"/>
<path fill-rule="evenodd" clip-rule="evenodd" d="M12.2457 21.75H11.7543C10.973 21.75 10.2863 21.232 10.0716 20.4808L9.63013 18.9355C9.54412 18.6345 9.20578 18.4856 8.92576 18.6256L7.48008 19.3485C6.80635 19.6854 5.99265 19.5533 5.46002 19.0207L4.97932 18.54C4.44669 18.0074 4.31465 17.1937 4.65151 16.5199L5.37436 15.0742C5.51436 14.7942 5.36553 14.4559 5.0645 14.3699L3.51924 13.9284C2.76796 13.7137 2.25 13.027 2.25 12.2457V11.7543C2.25 10.973 2.76796 10.2863 3.51924 10.0716L5.0645 9.63013C5.36553 9.54412 5.51436 9.20578 5.37436 8.92576L4.65151 7.48008C4.31465 6.80635 4.44669 5.99265 4.97932 5.46002L5.46002 4.97932C5.99265 4.44669 6.80635 4.31465 7.48008 4.65151L8.92576 5.37436C9.20578 5.51436 9.54412 5.36553 9.63013 5.0645L10.0716 3.51924C10.2863 2.76796 10.973 2.25 11.7543 2.25H12.2457C13.027 2.25 13.7137 2.76796 13.9284 3.51924L14.3699 5.0645C14.4559 5.36553 14.7942 5.51436 15.0742 5.37436L16.5199 4.65151C17.1937 4.31465 18.0074 4.44669 18.54 4.97932L19.0207 5.46002C19.5533 5.99265 19.6854 6.80635 19.3485 7.48008L18.6256 8.92576C18.4856 9.20578 18.6345 9.54412 18.9355 9.63013L20.4808 10.0716C21.232 10.2863 21.75 10.973 21.75 11.7543V12.2457C21.75 13.027 21.232 13.7137 20.4808 13.9284L18.9355 14.3699C18.6345 14.4559 18.4856 14.7942 18.6256 15.0742L19.3485 16.5199C19.6854 17.1937 19.5533 18.0074 19.0207 18.54L18.54 19.0207C18.0074 19.5533 17.1937 19.6854 16.5199 19.3485L15.0742 18.6256C14.7942 18.4856 14.4559 18.6345 14.3699 18.9355L13.9284 20.4808C13.7137 21.232 13.027 21.75 12.2457 21.75ZM11.7543 20.25H12.2457C12.3573 20.25 12.4554 20.176 12.4861 20.0687L13.1742 17.6601C13.3282 17.1214 13.8205 16.75 14.3808 16.75C14.5756 16.75 14.7678 16.7954 14.942 16.8825L17.1907 18.0068C17.287 18.055 17.4032 18.0361 17.4793 17.96L17.96 17.4793C18.0361 17.4032 18.055 17.287 18.0068 17.1907L16.8825 14.942C16.7954 14.7678 16.75 14.5756 16.75 14.3808C16.75 13.8205 17.1214 13.3282 17.6601 13.1742L20.0687 12.4861C20.176 12.4554 20.25 12.3573 20.25 12.2457V11.7543C20.25 11.6427 20.176 11.5446 20.0687 11.5139L17.6601 10.8258C17.1214 10.6718 16.75 10.1795 16.75 9.61918C16.75 9.42437 16.7954 9.23223 16.8825 9.05799L18.0068 6.80926C18.055 6.71301 18.0361 6.59677 17.96 6.52068L17.4793 6.03998C17.4032 5.96389 17.287 5.94503 17.1907 5.99315L14.942 7.11752C14.7678 7.20464 14.5756 7.25 14.3808 7.25C13.8205 7.25 13.3282 6.87859 13.1742 6.33988L12.4861 3.93132C12.4554 3.82399 12.3573 3.75 12.2457 3.75H11.7543C11.6427 3.75 11.5446 3.82399 11.5139 3.93132L10.8258 6.33988C10.6718 6.87859 10.1795 7.25 9.61918 7.25C9.42437 7.25 9.23223 7.20464 9.05799 7.11752L6.80926 5.99315C6.71301 5.94503 6.59677 5.96389 6.52068 6.03998L6.03998 6.52068C5.96389 6.59677 5.94503 6.71301 5.99315 6.80926L7.11752 9.05799C7.20464 9.23223 7.25 9.42437 7.25 9.61918C7.25 10.1795 6.87859 10.6718 6.33988 10.8258L3.93132 11.5139C3.82399 11.5446 3.75 11.6427 3.75 11.7543V12.2457C3.75 12.3573 3.82399 12.4554 3.93132 12.4861L6.33988 13.1742C6.87859 13.3282 7.25 13.8205 7.25 14.3808C7.25 14.5756 7.20464 14.7678 7.11752 14.942L5.99315 17.1907C5.94503 17.287 5.96389 17.4032 6.03998 17.4793L6.52068 17.96C6.59677 18.0361 6.71301 18.055 6.80926 18.0068L9.05799 16.8825C9.23223 16.7954 9.42437 16.75 9.61918 16.75C10.1795 16.75 10.6718 17.1214 10.8258 17.6601L11.5139 20.0687C11.5446 20.176 11.6427 20.25 11.7543 20.25Z" fill="black"/>
</svg>
